X:330
T: AUF D ALMA GEH I AUFE
N: E1483
O: Europa, Mitteleuropa, Oesterreich, Tirol
R: Staende -, Hirten -, Alpen - Lied
M: 2/4
L: 1/16
K: Eb
E2 | E2G2B2e2 | B4G2
B2 | B3AA2D2 | E2
G2B4 | B2a2f4 | B2g2e4 |
B2A2F2A2 | G6
E2 | E2G2B2e2 | B4G2
B2 | B3AA2D2 | E2
G2B4 | B2a2f4 | B2g2e4 |
B2A2F2A2 | G6
E2 | E3CC2C2 | A3AA2
A2 | F2F2F2GA | B4z2
E2 | E2G2B2e2 | B4G2
B2 | B3AA2D2 | E2
G2B4 | B2a2f4 | B2g2e4 |
B2A2F2D2 | E4z2

@@@ Tune index: 5014
